X:335
M:C
L:1/8
K:F
d/c/B/A/ Gc/B/ A<F~F||
c|f/e/d/c/ ~fcdc f2|~f>c d<c f<a ~ge|f/e/d/c/ f>c d<BA<f|
c>B A<G F2 F>c|f/e/d/c/ f>c d<c ~f2|f>c d<c f<a ~g>e|
f/g/a/g/ f>c d>fB>d|c>A c/B/A/G/ F2 ~F||

